assets/Takeout box/Flat/takeout_box_flat.svg

<svg width="32" height="32" viewBox="0 0 32 32" fill="none" xmlns="http://www.w3.org/2000/svg">
<path d="M6.36372 17.434L3.61595 19.8088C3.1693 20.1336 2.54388 20.0348 2.21904 19.5882C1.89421 19.1415 1.99296 18.5161 2.43961 18.1913L5.90821 15.1935C5.94936 15.1636 5.99204 15.1372 6.03586 15.1144C6.2488 10.0465 10.6409 6 16.0278 6C21.414 6 25.8056 10.0454 26.0196 15.1124C26.0648 15.1357 26.1088 15.1627 26.1512 15.1935L29.616 18.1913C30.0626 18.5161 30.1614 19.1415 29.8365 19.5882C29.5117 20.0348 28.8863 20.1336 28.4396 19.8088L25.6902 17.4299L23.5199 29.5536C23.5185 29.5615 23.5169 29.5693 23.5151 29.5771C23.3673 30.2228 23.0362 30.6 22.692 30.8019C22.5275 30.8984 22.3727 30.9475 22.2557 30.9727C22.197 30.9853 22.1468 30.9921 22.1081 30.9958C18.0547 30.9958 14.0012 30.9959 9.94776 30.9959C9.90889 30.9924 9.85802 30.9858 9.79844 30.9734C9.67997 30.9488 9.52181 30.9004 9.35441 30.804C9.00202 30.6012 8.66592 30.2182 8.5371 29.5618C8.4345 29.039 7.80827 25.5406 7.20938 22.1826C6.90955 20.5015 6.61607 18.8527 6.39755 17.6242L6.36372 17.434Z" fill="#9B9B9B"/>
<path d="M7.38211 17.4491L7.12445 16H24.9303L22.5378 29.3649C22.4482 29.7453 22.2816 29.8833 22.1859 29.9394C22.13 29.9723 22.0792 29.9878 22.0457 29.995C22.0314 29.9981 22.021 29.9994 22.0159 30H10.038C10.0323 29.9995 10.0195 29.998 10.0017 29.9943C9.96435 29.9865 9.91058 29.9703 9.85335 29.9374C9.75649 29.8816 9.59259 29.7473 9.51841 29.3692C9.418 28.8576 8.79423 25.3732 8.19387 22.007C7.89407 20.3261 7.60062 18.6775 7.38211 17.4491Z" fill="white"/>
<path d="M16.2778 17.5C16.2778 17.3619 16.1659 17.25 16.0278 17.25C15.8897 17.25 15.7778 17.3619 15.7778 17.5V18.25H14.088C14.007 18.25 13.9632 18.3575 13.9632 18.3575L13.534 19.5625C13.5069 19.6289 13.534 19.75 13.6899 19.75H14.2778V20.75H12.9165C12.7866 20.75 12.7163 20.8933 12.7163 20.8933L12.0278 22.5C11.9842 22.5885 12.0278 22.75 12.2778 22.75H13.2778V25H12.5278C12.2516 25 12.0278 25.2239 12.0278 25.5C12.0278 25.7761 12.2516 26 12.5278 26H19.5278C19.8039 26 20.0278 25.7761 20.0278 25.5C20.0278 25.2239 19.8039 25 19.5278 25H18.7778V22.75H19.7778C20.0278 22.75 20.0638 22.5932 20.0278 22.5L19.3392 20.8933C19.3392 20.8933 19.2846 20.75 19.1455 20.75H17.7778V19.75H18.3646C18.5204 19.75 18.5429 19.6324 18.5204 19.5625L18.0912 18.3575C18.0912 18.3575 18.0572 18.25 17.9705 18.25H16.2778V17.5ZM18.2778 25H13.7778V22.75H18.2778V25ZM14.7778 20.75V19.75H17.2778V20.75H14.7778Z" fill="#F8312F"/>
</svg>

<svg xmlns="http://www.w3.org/2000/svg" width="32" height="32" fill="none"><path fill="#9B9B9B" d="m6.364 17.434-2.748 2.375A1 1 0 0 1 2.44 18.19l3.468-2.997c.041-.03.084-.057.128-.08C6.249 10.046 10.64 6 16.028 6c5.386 0 9.778 4.045 9.992 9.112.045.024.089.05.131.082l3.465 2.997a1 1 0 0 1-1.176 1.618l-2.75-2.38-2.17 12.125a.466.466 0 0 1-.005.023c-.148.646-.479 1.023-.823 1.225a1.482 1.482 0 0 1-.584.194H9.948a1.507 1.507 0 0 1-.593-.192c-.353-.203-.69-.586-.818-1.242-.103-.523-.729-4.021-1.328-7.38-.3-1.68-.593-3.33-.811-4.558l-.034-.19Z"/><path fill="#fff" d="M7.382 17.45 7.124 16H24.93l-2.392 13.365c-.09.38-.256.518-.352.574a.477.477 0 0 1-.17.061H10.038a.51.51 0 0 1-.185-.063c-.097-.055-.26-.19-.335-.568-.1-.511-.724-3.996-1.324-7.362l-.812-4.558Z"/><path fill="#F8312F" d="M16.278 17.5a.25.25 0 1 0-.5 0v.75h-1.69c-.081 0-.125.108-.125.108l-.429 1.204c-.027.067 0 .188.156.188h.588v1h-1.362c-.13 0-.2.143-.2.143l-.688 1.607c-.044.088 0 .25.25.25h1V25h-.75a.5.5 0 1 0 0 1h7a.5.5 0 0 0 0-1h-.75v-2.25h1c.25 0 .286-.157.25-.25l-.689-1.607s-.054-.143-.194-.143h-1.367v-1h.587c.155 0 .178-.118.155-.188l-.429-1.204s-.034-.108-.12-.108h-1.693v-.75Zm2 7.5h-4.5v-2.25h4.5V25Zm-3.5-4.25v-1h2.5v1h-2.5Z"/></svg>
